X:200
T:Nail That Catfish to a Tree
C:Steve Rosen
S:Pete Budd, Edinburgh
Z:Nigel Gatherer
M:4/4
L:1/8
K:G
D2|B2 B2 A2 B2|cB A2 B4|ABAG FGAB|A2 F2 E/F/E D2|
B2 B2 A2 B2|cB A2 B4|ABAG FDEF|G6:|
D2|C4 E4|c6 B2|ABAG FGAB|A2 F2 E/F/E D2|
C4 E4|c6 B2||ABAG FDEF|G6 D2|
C4 E4|c6 B2|ABAG FGAB|A2 F2 E/F/E D2|
C4 E4|c6 Bc|d2 c2 B2 A2|G2 z2 G2|]
<end>
<start>
